X:4023
T:Denis Murphy's Slide
R:Slide
C:Trad.
O:Ireland
Z:Paul Hardy's Session Tunebook 2015 (see www.paulhardy.net). Creative Commons cc by-nc-sa licenced.
M:12/8
L:1/8
Q:3/8=100
K:D
B|"D"A2D FED F2A A2f|"G"gfe "D"f2d "Em"e2d "G"BdB|"D"A2D FED F2A A2f|"G"a2f "A"efe "D"d3 d2:|
|:A|"D"d2e f2f "G"gfe "D"f3|"G"gfe "D"f2d "Em"e2d "A"BAB|"D"d2e f3 "G"gfe "D"f2g|"G"a2f "A"efe "D"d3 d2:|

